!!!COM: Bach, Johann Sebastian
!!!CDT: 1685/02/21/-1750/07/28/
!!!OTL@@DE: Ich ruf zu dir, Herr Jesu Christ
!!!SCT: BWV 177/5
!!!PC#: 71
!!!AGN: chorale
**harm	**kern	**kern	**kern	**kern
*	*ICvox	*ICvox	*ICvox	*ICvox
*	*Ibass	*Itenor	*Ialto	*Isoprn
*	*I"Bass	*I"Tenor	*I"Alto	*I"Soprano
*>[A,A,B]	*>[A,A,B]	*>[A,A,B]	*>[A,A,B]	*>[A,A,B]
*>norep[A,B]	*>norep[A,B]	*>norep[A,B]	*>norep[A,B]	*>norep[A,B]
*>A	*>A	*>A	*>A	*>A
*	*	*oclefC4	*oclefC3	*oclefC1
*	*clefF4	*clefGv2	*clefG2	*clefG2
*k[f#]	*k[f#]	*k[f#]	*k[f#]	*k[f#]
*e:	*e:	*e:	*e:	*e:
*M4/4	*M4/4	*M4/4	*M4/4	*M4/4
*met(c)	*met(c)	*met(c)	*met(c)	*met(c)
*MM100	*MM100	*MM100	*MM100	*MM100
V6	4D#	4B	4f#	4b
=1	=1	=1	=1	=1
i[	4E	4B	4e	4g
viio2]	4E	4c	4d#	4f#
i	4E	4B	4e	4g
i6	4G	4B	4e	4e
=2	=2	=2	=2	=2
i	4E	4B	4e	4g
iv6	8CL	8AL	8eL	8aL
ii%43	8CJ	8F#J	8eJ	8aJ
V;	4BB;	4F#;	4d#;	4b;
i	4E	4G	4e	4b
=3	=3	=3	=3	=3
G:V65	4F#	4A	4dnX	4cc
I	8GGL	8GL	8dL	8bL
V7/IV	8GGJ	8FJ	8dJ	8bJ
IV	4C	4E	4e	4g
V2	8CL	8F#L	8dL	8aL
a:viio6	8BBJ	8G#J	8dJ	8bJ
=4	=4	=4	=4	=4
i	4AA	4A	4c	4cc
e:ii%65	8AAL	8F#L	8eL	8ccL
viio43	8AAJ	8F#J	8d#J	8ccJ
i;	4EE;	4G;	4e;	4b;
*>B	*>B	*>B	*>B	*>B
G:I6	8BBL	8GL	8dnXL	8ddL
V65/IV	8BBJ	8GJ	8fJ	8ddJ
=5	=5	=5	=5	=5
IV	4C	4G	4e	4ee
V7	4D	4A	4f#X	4cc
V65/vi	4D#	4B	4f#	4a
vi	4E	4B	4g	4g
=6	=6	=6	=6	=6
V(64)	4DnX	4d	4g	4b
V7	4D	4c	4f#	4a
I;	4GG;	4B;	4d;	4g;
I	4G	4G	4d	4b
=7	=7	=7	=7	=7
e:V65	4D#	4F#	4a	4b
i	4E	4E	4g	4b
iv6	4C	4A	4e	4a
ii%65	4AA	4c	4e	4f#
=8	=8	=8	=8	=8
V	2BB	2A	2d#	2f#
VI;	2C;	2G;	2e;	2e;
=9	=9	=9	=9	=9
D:V65	4C#	4A	4e	4g
I	4D	4A	4d	4f#
ii65	4GG	4B	4d	4e
V7	4AA	4G	4c#	4e
=10	=10	=10	=10	=10
I;	4D;	4F#;	4A;	4d;
G:V	8DL	8F#L	8AL	8dL
V2	8CnXJ	8F#J	8AJ	8dJ
I6	8BBL	8GL	8dL	8gL
C:V65	8BBJ	8FJ	8dJ	8gJ
I	8CL	8EL	8cL	8gL
V6	8BBJ	8GJ	8dJ	8gJ
=11	=11	=11	=11	=11
vi	4AA	4c	4e	4a
a:iv6	4FF	4d	4A	4a
V;	4EE;	4G#;	4e;	4b;
i	4AA	4A	4e	4cc
=12	=12	=12	=12	=12
e:V	4BB	4F#	4d#	4b
IV6	8C#L	8EL	8eL	8aL
V65	8D#J	8BJ	8f#XJ	8aJ
i	8EL	8BL	8eL	8gL
V64	8F#J	8BJ	8d#J	8f#J
i6	8GL	8BL	8eL	8eL
ii%65	8AJ	8c	8eJ	8f#J
=13	=13	=13	=13	=13
V(64)	4B	4B	4e	4g
V7	4BB	4A	4d#	4f#
I;	4E;	4G#;	4B;	4e;
==	==	==	==	==
*-	*-	*-	*-	*-
!!!YOR1: 371 vierstimmige Choralges&auml;nge von Johann Sebastian Bach, 
!!!YOR2: 4th ed. by Alfred D&ouml;rffel (Leipzig: Breitkopf und H&auml;rtel, 
!!!YOR2: c.1875). 178 pp. Plate "V.A.10".  reprint: J.S. Bach, 371 Four-Part 
!!!YOR4: Chorales (New York: Associated Music Publishers, Inc., c.1940).
!!!SMS: B&H, 4th ed, Alfred D&ouml;rffel, c.1875, plate V.A.10
!!!EED:  Craig Stuart Sapp
!!!EEV:  2009/05/22
